X:2170
T:ppelbomarsch (Gnglt fr ppelbo)
A:Dalarna
M:4/4
O:Sweden
R:Gnglt
Z:Richard Robinson 
%%TUNEURL: http://www.leeds.ac.uk/music/Info/RRTuneBk/gettune/000008d2.html
%%ID:000008d2
K:G
D2 | \
G3D  G2B2 | d6 dB | d2dB d2de | cdcB A2 AB |\
c2cd e2dc | BcBA G2FG | ABAF D2EF | G6 :|
|:Bd |\
g2g2 g2fe | f6 gf | e2ef g2fe | edd^c d2dB |\
c2 cB A2GA | BcBA | G2FG  ABAF D2EF | G6 :|
